!!! OTL: Berkowitz103
!!! Chapter: 1
!!! Section: I
!!! Page: 26
!!! Mode: 
!!! Encoder: DJB
**kern
*staff1
*I"Piano
*clefF4
*k[b-]
*g:
*M4/4
4D\
=1
4G\
4B-\
4d\
8c\L
8B-\J
=2
4.A\
8B-\
4G\
4D\
=3
4G\
4B-\
4d\
8c\L
8B-\J
=4
2A\
4r
4D\
=5
4.E\
8D\
4C/
8D\L
8E\J
=6
4D\
4G\
4A\
4B-\
=7
4c\
8B-\L
8A\J
4B-\
4G\
=8
!!linebreak:original
4.A\
8B-\
4G\
4r
==
*-
